X: 5
T: The Reverend Brother's Harmony.  
M: 6/8
L: 1/8
R: jig
K:EDOR %Transposed from ADOR
|:"Am"EFE G2B|AGA BdB|EFE G2B|"G"AGE EDB,|
"Am"EFE G2B|AGA BdB|e3 dBA|"G"GED "Am"E3:|
|:"Am"Bee efe|"G"dBc dBA|"Am"Bee efe|"G"dBA GEE|
"Am"Bee efe|"G"dBc d3|"Am"e3 dBA|"G"GED "Am"E3:||
%%begintext ragged
This sounds weirdly exciting if played occasionally!
But it just sounds weird if you play it too much, so wait for a sign from Debby.
It is just transposed up a fifth from the low-octave variant.

%%endtext
%%scale .5
%%text 

#include "LeftHeader.h"
% ---------- set 84 ----------
$SmallRMargin
$SmallLMargin
% The Great Cape Breton Set
%%text Set 84 $1The Great Cape Breton Set!
%%vskip -1cm
%%scale .64
